svg/Pictogram/pictograms-aem-0046-remove_key_and_read_service_manual_before_servicing.svg

<?xml version="1.0" encoding="ISO-8859-1" standalone="yes"?>
<svg height="304.014" width="304.015">
  <metadata>
    <rdf:RDF xmlns:cc="http://web.resource.org/cc/" xmlns:dc="http://purl.org/dc/elements/1.1/" xmlns:rdf="http://www.w3.org/1999/02/22-rdf-syntax-ns#">
      <cc:Work rdf:about="">
        <dc:title></dc:title>
        <dc:description></dc:description>
        <dc:subject>
          <rdf:Bag>
            <rdf:li></rdf:li>
          </rdf:Bag>
        </dc:subject>
        <dc:publisher>
          <cc:Agent rdf:about="http://www.unece.org/trans/danger/publi/ghs/pictograms.html">
            <dc:title>Source: UNECE GHS of Classification and Labeling of Chemicals, Source: AEM Pictorial Database, Source: AEM Pictorial Database, Source: AEM Pictorial Database, Source: AEM Pictorial Database</dc:title>
          </cc:Agent>
        </dc:publisher>
        <dc:creator>
          <cc:Agent>
            <dc:title></dc:title>
          </cc:Agent>
        </dc:creator>
        <dc:rights>
          <cc:Agent>
            <dc:title></dc:title>
          </cc:Agent>
        </dc:rights>
        <dc:date></dc:date>
        <dc:format>image/svg+xml</dc:format>
        <dc:type rdf:resource="http://purl.org/dc/dcmitype/StillImage"/>
        <cc:license rdf:resource="http://en.wikipedia.org/wiki/Public_domain"/>
        <dc:language>en</dc:language>
      </cc:Work>
    </rdf:RDF>
  </metadata>
  <defs><marker id="ArrowEnd" markerHeight="3" markerUnits="strokeWidth" markerWidth="4" orient="auto" refX="0" refY="5" viewBox="0 0 10 10"><path d="M 0 0 L 10 5 L 0 10 z"/></marker><marker id="ArrowStart" markerHeight="3" markerUnits="strokeWidth" markerWidth="4" orient="auto" refX="10" refY="5" viewBox="0 0 10 10"><path d="M 10 0 L 0 5 L 10 10 z"/></marker> </defs>
  <g id="g2958" transform="matrix(1.3532768,0,0,1.3532781,-53.207834,-52.192858)">
    <path d="M 104.194 100.245L 102.663 100.245L 102.663 106.213L 103.429 106.213L 103.429 116.006L 102.663 116.006L 102.663 121.971L 108.632 121.971L 108.632 100.245L 104.194 100.245" style="stroke:none; fill-rule:evenodd; fill:#000000"/>
    <path d="M 183.991 68.2134L 164.448 50.6244L 164.468 59.9244L 131.421 59.9134L 131.421 76.5694L 164.405 76.5534L 164.401 85.8664L 183.991 68.2094" style="stroke:none; fill-rule:evenodd; fill:#000000"/>
    <path d="M 241.808 198.444L 241.007 199.838L 211.37 251.393L 210.784 252.416L 209.62 252.612C 193.108 255.381 182.366 250.545 172.89 246.28C 163.327 241.975 155.069 238.256 142.187 242.182L 141.62 242.358L 141.034 242.256L 129.194 240.217L 128.515 240.1L 127.991 239.651C 117.214 230.416 103.069 231.795 92.7414 232.799C 90.3974 233.03 88.1834 233.245 86.2804 233.299C 78.5424 233.53 72.3194 231.014 65.1164 228.1L 64.6244 227.901L 62.2024 226.92L 63.2884 224.545L 66.6364 217.206L 66.7694 216.913L 66.9764 216.663L 102.62 173.108L 103.511 172.022L 104.897 172.213C 116.847 173.877 123.12 172.979 129.19 172.112C 135.808 171.163 142.062 170.268 154.069 173.256C 161.815 175.182 165.878 179.416 167.886 182.459C 172.804 178.065 177.464 177.166 184.147 177.166C 194.558 177.166 202.476 180.248 210.136 183.229C 217.526 186.108 224.511 188.827 233.062 188.28L 234.44 188.19L 235.249 189.315L 240.866 197.135L 241.808 198.444zM 163.98 195.831L 191.425 195.831C 193.667 193.077 197.733 191.78 201.812 192.854C 205.483 193.823 208.202 196.452 209.144 199.518L 203.351 198.03L 198.183 200.94L 201.245 206.018L 207.015 207.577C 204.687 209.78 201.022 210.729 197.354 209.76C 194.843 209.096 192.784 207.651 191.429 205.823L 157.14 205.823L 142.976 226.53C 145.269 225.936 148.167 225.514 151.812 225.506C 163.679 225.479 170.972 229.241 178.03 232.877C 184.827 236.381 191.276 239.69 201.94 239.916L 228.882 193.288C 221.233 192.901 214.687 190.362 208.323 187.885C 201.097 185.073 193.624 182.163 184.147 182.163C 177.472 182.163 173.894 183.01 169.194 188.206L 163.98 195.827L 163.98 195.831zM 73.7614 216.26C 83.3124 219.393 87.8434 218.776 94.4404 217.862L 97.6944 217.428C 110.44 215.85 127.354 217.655 136.522 227.112L 151.085 205.823L 121.647 205.823C 119.405 208.577 115.339 209.874 111.261 208.799C 107.593 207.831 104.87 205.202 103.933 202.135L 109.722 203.624L 114.89 200.713L 111.827 195.635L 106.058 194.073C 108.39 191.87 112.054 190.924 115.718 191.889C 118.233 192.553 120.288 193.998 121.647 195.831L 157.925 195.831L 164.401 186.362C 163.382 184.358 160.362 179.971 152.862 178.108C 141.804 175.354 136.284 176.143 129.897 177.057C 124.015 177.901 117.362 178.842 105.608 177.346L 73.7614 216.26zM 204.604 248.209L 202.112 244.916C 190.132 244.717 182.812 240.963 175.737 237.319C 168.913 233.799 162.468 230.479 151.819 230.502C 142.288 230.526 139.237 233.694 139.253 233.674L 137.062 236.327L 135.218 233.42C 128.452 222.741 111.104 220.803 98.3084 222.385L 95.1244 222.811C 87.7454 223.831 82.3474 224.561 70.6364 220.471L 68.9174 224.241C 74.9874 226.674 80.0734 228.487 86.1284 228.303C 87.8624 228.252 89.8974 228.053 92.2574 227.823C 102.69 226.807 118.374 225.288 130.69 235.405L 141.339 237.237C 155.679 233.073 165.476 237.459 174.94 241.721C 183.308 245.487 191.944 249.35 204.604 248.209zM 235.87 198.745L 233.448 195.374L 206.362 242.252L 208.921 245.631L 235.87 198.745" style="stroke:none; fill-rule:evenodd; fill:#000000"/>
    <path d="M 238.065 113.248C 238.065 129.979 224.503 143.541 207.776 143.541C 194.077 143.541 182.511 134.448 178.765 121.971L 167.386 121.971L 164.323 117.077L 158.663 121.971L 153.769 119.674L 148.87 122.124L 143.976 119.831L 140.304 122.124L 135.409 118.452L 130.515 118.452L 127.452 122.124L 113.753 112.639L 113.53 112.639L 113.53 110.651L 127.452 101.01L 130.515 104.682L 135.409 104.682L 140.304 101.01L 143.976 103.303L 148.87 101.01L 153.769 103.459L 158.663 101.163L 164.323 106.057L 167.386 101.163L 179.999 101.163C 184.667 90.4484 195.343 82.9564 207.776 82.9564C 224.507 82.9564 238.069 96.5184 238.069 113.248L 238.065 113.248zM 177.503 112.487C 177.519 111.87 177.55 111.256 177.601 110.651L 124.39 110.651L 124.39 112.487L 177.503 112.487zM 223.073 107.194C 219.73 107.194 217.015 109.905 217.015 113.248C 217.015 116.596 219.73 119.307 223.073 119.307C 226.421 119.307 229.132 116.596 229.132 113.248C 229.132 109.905 226.421 107.194 223.073 107.194" style="stroke:none; fill-rule:evenodd; fill:#000000"/>
    <path d="M 128.804 125.038C 124.218 132.745 115.8 137.92 106.194 137.92C 91.6944 137.92 79.8974 126.127 79.8974 111.627C 79.8974 97.1274 91.6944 85.3344 106.194 85.3344C 115.972 85.3344 124.522 90.6984 129.05 98.6394L 131.202 97.3704C 126.237 88.6944 116.886 82.8344 106.194 82.8344C 90.3154 82.8344 77.3974 95.7484 77.3974 111.627C 77.3974 127.502 90.3154 140.42 106.194 140.42C 116.687 140.42 125.886 134.78 130.921 126.37L 128.804 125.038" style="stroke:none; fill-rule:evenodd; fill:#000000"/>
    <path d="M 126.304 100.209C 122.315 93.2294 114.8 88.5104 106.198 88.5104C 93.4444 88.5104 83.0654 98.8854 83.0654 111.643C 83.0654 124.397 93.4404 134.776 106.198 134.776C 114.647 134.776 122.05 130.225 126.089 123.448L 121.362 120.631C 118.288 125.803 112.64 129.276 106.198 129.276C 96.4764 129.276 88.5654 121.366 88.5654 111.643C 88.5654 101.92 96.4764 94.0104 106.198 94.0104C 112.757 94.0104 118.491 97.6124 121.53 102.94L 126.304 100.209" style="stroke:none; fill-rule:evenodd; fill:#000000"/>
    <path d="M 29.6204 265.393L 2.62042 265.393" style="stroke:#000000; stroke-width:0.5; fill:none"/>
    <path d="M 38.6204 274.393L 38.6204 301.393" style="stroke:#000000; stroke-width:0.5; fill:none"/>
    <path d="M 29.6204 38.6204L 2.62042 38.6204" style="stroke:#000000; stroke-width:0.5; fill:none"/>
    <path d="M 38.6204 29.6204L 38.6204 2.62042" style="stroke:#000000; stroke-width:0.5; fill:none"/>
    <path d="M 274.394 38.6204L 301.394 38.6204" style="stroke:#000000; stroke-width:0.5; fill:none"/>
    <path d="M 265.394 29.6204L 265.394 2.62042" style="stroke:#000000; stroke-width:0.5; fill:none"/>
    <path d="M 274.394 265.393L 301.394 265.393" style="stroke:#000000; stroke-width:0.5; fill:none"/>
    <path d="M 265.394 274.393L 265.394 301.393" style="stroke:#000000; stroke-width:0.5; fill:none"/>
  </g>
</svg>

<svg viewBox="0 0 304.01 304.01"><g transform="matrix(1.35328 0 0 1.35328-53.21-52.19)" fill-rule="evenodd"><path d="m104.19 100.25h-1.531v5.968h.766v9.793h-.766v5.965h5.969v-21.726h-4.438"/><path d="m183.99 68.21l-19.543-17.589.02 9.3-33.05-.011v16.656l32.984-.016-.004 9.313 19.59-17.657"/><path d="m241.81 198.44l-.801 1.394-29.637 51.56-.586 1.023-1.164.196c-16.512 2.769-27.25-2.067-36.73-6.332-9.563-4.305-17.821-8.02-30.703-4.098l-.567.176-.586-.102-11.84-2.039-.679-.117-.524-.449c-10.777-9.235-24.922-7.856-35.25-6.852-2.344.231-4.558.446-6.461.5-7.738.231-13.961-2.285-21.16-5.199l-.492-.199-2.422-.981 1.086-2.375 3.348-7.339.133-.293.207-.25 35.644-43.555.891-1.086 1.386.191c11.95 1.664 18.223.766 24.293-.101 6.618-.949 12.872-1.844 24.879 1.144 7.746 1.926 11.809 6.16 13.817 9.203 4.918-4.394 9.578-5.293 16.261-5.293 10.411 0 18.329 3.082 25.989 6.06 7.39 2.879 14.375 5.598 22.926 5.05l1.378-.09.809 1.125 5.617 7.82.942 1.309m-77.83-2.613h27.445c2.242-2.754 6.308-4.051 10.387-2.977 3.671.969 6.39 3.598 7.332 6.664l-5.793-1.488-5.168 2.91 3.062 5.078 5.77 1.559c-2.328 2.203-5.993 3.152-9.661 2.183-2.511-.664-4.57-2.109-5.925-3.937h-34.29l-14.164 20.707c2.293-.594 5.191-1.016 8.836-1.024 11.867-.027 19.16 3.735 26.22 7.371 6.797 3.504 13.246 6.813 23.91 7.04l26.942-46.628c-7.649-.387-14.195-2.926-20.559-5.403-7.226-2.812-14.699-5.722-24.18-5.722-6.675 0-10.253.847-14.953 6.04l-5.214 7.621v.004m-90.22 20.429c9.551 3.133 14.08 2.516 20.679 1.602l3.254-.434c12.746-1.578 29.66.227 38.828 9.684l14.563-21.289h-29.438c-2.242 2.754-6.308 4.051-10.386 2.976-3.668-.968-6.391-3.597-7.328-6.664l5.789 1.489 5.168-2.911-3.063-5.078-5.769-1.562c2.332-2.203 5.996-3.149 9.66-2.184 2.515.664 4.57 2.109 5.929 3.942h36.28l6.476-9.469c-1.019-2-4.04-6.391-11.539-8.254-11.06-2.754-16.578-1.965-22.965-1.051-5.882.844-12.535 1.785-24.289.289l-31.847 38.914m130.84 31.949l-2.492-3.293c-11.98-.199-19.3-3.953-26.375-7.597-6.824-3.52-13.269-6.84-23.918-6.817-9.531.024-12.582 3.192-12.566 3.172l-2.191 2.653-1.844-2.907c-6.766-10.679-24.11-12.617-36.91-11.03l-3.184.426c-7.379 1.02-12.777 1.75-24.488-2.34l-1.719 3.77c6.07 2.433 11.156 4.246 17.211 4.062 1.734-.051 3.769-.25 6.129-.48 10.433-1.016 26.12-2.535 38.433 7.582l10.649 1.832c14.34-4.164 24.14.222 33.601 4.484 8.368 3.766 17 7.629 29.664 6.488m31.27-49.46l-2.422-3.371-27.09 46.878 2.559 3.379 26.949-46.886"/><path d="m238.06 113.25c0 16.731-13.562 30.29-30.29 30.29-13.699 0-25.27-9.09-29.01-21.57h-11.379l-3.063-4.894-5.66 4.894-4.894-2.297-4.899 2.45-4.894-2.293-3.672 2.293-4.895-3.672h-4.894l-3.063 3.672-13.699-9.485h-.223v-1.988l13.922-9.641 3.063 3.672h4.894l4.895-3.672 3.672 2.293 4.894-2.293 4.899 2.449 4.894-2.296 5.66 4.894 3.063-4.894h12.613c4.668-10.715 15.344-18.207 27.777-18.207 16.731 0 30.29 13.562 30.29 30.29h-.004m-60.56-.761c.016-.617.047-1.231.098-1.836h-53.21v1.836h53.11m45.57-5.293c-3.343 0-6.06 2.711-6.06 6.05 0 3.348 2.715 6.06 6.06 6.06 3.348 0 6.06-2.711 6.06-6.06 0-3.343-2.711-6.05-6.06-6.05"/><path d="m128.8 125.04c-4.586 7.707-13 12.882-22.61 12.882-14.5 0-26.297-11.793-26.297-26.293 0-14.5 11.797-26.293 26.297-26.293 9.778 0 18.328 5.364 22.856 13.305l2.152-1.269c-4.965-8.676-14.316-14.536-25.01-14.536-15.879 0-28.797 12.914-28.797 28.793 0 15.875 12.918 28.793 28.797 28.793 10.493 0 19.692-5.64 24.727-14.05l-2.117-1.332"/><path d="m126.3 100.21c-3.989-6.98-11.504-11.699-20.11-11.699-12.754 0-23.13 10.375-23.13 23.13 0 12.754 10.375 23.13 23.13 23.13 8.449 0 15.852-4.551 19.891-11.328l-4.727-2.817c-3.074 5.172-8.722 8.645-15.16 8.645-9.722 0-17.633-7.91-17.633-17.633 0-9.723 7.911-17.633 17.633-17.633 6.559 0 12.293 3.602 15.332 8.93l4.774-2.731"/></g></svg>
